X:1
T:Title
%%score ( 1 2 ) { 3 | 4 }
L:1/8
Q:1/4=105
M:4/4
K:Bb
V:1 treble nm="Grand Piano, Soprano"
V:2 treble 
V:3 bass nm="Choir Pad, Bass"
V:4 bass 
V:1
 [DF][DF] [DB]2 [DB]2 [Fd]2 | [FB]2 [GB]2 [EG]2 [DF]2 | [DF][DF] [DB]2 [DB]2 [Fd][Fd] | %3
w: By~Arthur~A.~Westbrook * * * *|||
 [Fc][FB] [Fc]6 | [EF][EF] [DB]2 [DB]2 [Fd]2 | [FB]2 [GB]2 [EG]2 [DF]2 | %6
w: |||
 [DB][Ec] [Fd]2 [Fd]2 [Fd][DB] | [Ec][Ec] [DB]6 | [Fd]2 B2- [EB-]2 [DB]2 | [EG]2 F2- [CF-]2 [DF]2 | %10
w: ||||
 [FB][Fc] d2- [^Fd-]2 [Gd]2 | [=Ec][EB] c2- [Ec-]2 [Fc]2 | [Fd]2 f2- [Af-]2 [Bf]2 | z2 d6 | %14
w: ||||
 [DB][Ec] [Fd]2 [Fd]2 [Fd][DB] | [Ec][Ec] [DB]6- | [DB]2 z2 z4 |] %17
w: |||
V:2
 x8 | x8 | x8 | x8 | x8 | x8 | x8 | x8 | z2 D2 z4 | z2 D2 z4 | z2 F2 z4 | z2 F2 z4 | z2 B2 z4 | %13
 [FB]2 F2 G2 F2 | x8 | x8 | x8 |] %17
V:3
 B,B, F,2 F,2 B,2 | B,2 B,2 B,2 B,2 | B,B, F,2 F,2 B,B, | A,B, A,6 | A,A, B,2 F,2 B,2 | %5
 B,2 B,2 B,2 B,2 | B,B, B,2 B,2 B,F, | F,F, F,6 | B,2 F,2 G,2 F,2 | B,2 B,2 A,2 B,2 | %10
 B,A, B,2 C2 B,2 | G,G, A,2 B,2 A,2 | B,2[K:treble] D2 C2 D2 | D2 B,2[K:bass] B,2 B,2 | %14
 B,B, B,2 B,2 B,F, | F,F, F,6- | F,2 z2 z4 |] %17
V:4
 B,,B,, B,,2 B,,2 B,,2 | D,2 E,2 G,2 z2 | B,,B,, B,,2 B,,2 B,,B,, | C,D, F,6 | %4
 F,F, B,,2 B,,2 B,,2 | D,2 E,2 G,2 z2 | z4 z2 .F,2 | z2 B,,6 | B,,2 B,,2 B,,2 B,,2 | %9
 B,,2 B,,2 F,,2 B,,2 | D,F, z2 A,2 G,2 | C,C, F,2 G,2 F,2 | z2 B,2 F,2 B,2 | B,2 z2 G,2 z2 | %14
 z4 z2 .F,2 | z2 B,,6- | B,,2 z2 z4 |] %17

